X:1
T:Grand March from the Opera of "Norma"
T:Grand March from the Opera of "Norma"
T:Bellini
C:Bellini
L:1/8
Q:1/4=120
M:4/4
K:D
V:1 treble 
V:1
"^With spririt" D>F | A2 F>A d2 A>d | f4 e>f | g>fe>d e>dc>B | (A4 F2) B>A | A3 G E2 B>A | %6
 A3 F D2 d>c | B2 B>c d>cd>e | A2 a>a a2 :: A>A | B2 B>B B>AB>c | (d4 A2) B>A | %12
 G/4 x2 F/G/A B>cd>e | (f4 d2) :: d>d | g6 d>d | ^g6 g>g |1 a2 f>d A>cd>e | f6 :|2 a2 f>d A>AB>c | %20
 d6!fine! ||[K:G] !fermata!G>B | d2 G>B d2 B>g | b4 a>gf>e | d2 e>d c2 d>c | B>AG>B A2 d>d | %26
 d2 B>g g2 d>b | b6 a>g | f(bb)g (fe)(^cd) | B6 E2 | E>FG>A B>^cd>e | f6 e>d | e6 d>B | A6 || %34

